svgs/sharp-solid/bin-bottles-recycle.svg

<svg xmlns="http://www.w3.org/2000/svg" viewBox="0 0 640 512"><!--! Font Awesome Pro 6.6.0 by @fontawesome - https://fontawesome.com License - https://fontawesome.com/license (Commercial License) Copyright 2024 Fonticons, Inc. --><path d="M256 0L128 0l0 32-16 0 0 32 16 0 128 0 16 0 0-32-16 0 0-32zM32 144l0 48 320 0 0-48s0 0 0 0l-32.4-16.2L256 96 128 96 32 144zm543.6-8l0-41.9-64-30 0-64.1-128 0 0 64.1-61.8 29 44.5 22.3 17.7 8.8 0 19.8 0 48 191.6 0 0-56zM640 224L0 224l0 64 32 0L64 512l512 0 32-224 32 0 0-64zM304 288l32 0 8.6 0 4.7 7.2 26.3 40-27.1 17L327.4 320l-14.8 0-20.3 30.5-27.1-17 25.6-38.4 4.8-7.1 8.6 0zm89.3 73.9l19.3 29.3 2.6 4 0 4.8 0 32 0 16-16 0-61.5 0 0-32 45.5 0 0-11.2-17.1-25.9 27.1-17zM305.7 416l0 32L240 448l-16 0 0-16 0-32 0-4.8 2.7-4 20.6-31 27.1 17L256 404.8l0 11.2 49.7 0z"/></svg>

<svg xmlns="http://www.w3.org/2000/svg" viewBox="0 0 640 512"><!--! Font Awesome Pro 6.4.2 by @fontawesome - https://fontawesome.com License - https://fontawesome.com/license (Commercial License) Copyright 2023 Fonticons, Inc. --><path d="M256 0H128V32H112V64h16H256h16V32H256V0zM32 144v48H352V144h0l-32.4-16.2L256 96H128L32 144zm543.6-8V94.1l-64-30V0h-128V64.1l-61.8 29 44.5 22.3 17.7 8.8V144v48H575.6V136zM640 224H0v64H32L64 512H576l32-224h32V224zM304 288h32 8.6l4.7 7.2 26.3 40-27.1 17L327.4 320H312.6l-20.3 30.5-27.1-17 25.6-38.4 4.8-7.1H304zm89.3 73.9l19.3 29.3 2.6 4V400v32 16h-16H337.7V416h45.5V404.8l-17.1-25.9 27.1-17zM305.7 416v32H240 224V432 400v-4.8l2.7-4 20.6-31 27.1 17L256 404.8V416h49.7z"/></svg>
